Catalina-dark/actions/22/view-group.svg

<svg width="22" height="22" viewBox="3 3 16.12 16" xmlns="http://www.w3.org/2000/svg">
<defs>
<style id="current-color-scheme" type="text/css">.ColorScheme-Text {
        color:#f2f2f2
      }</style>
</defs>
<path class="ColorScheme-Text" d="m16.324 2.9999c-0.50824 0-0.97708 0.12451-1.4062 0.375-0.42922 0.25045-0.76904 0.59031-1.0195 1.0195-0.25054 0.42922-0.375 0.89806-0.375 1.4062 0 0.50824 0.12455 0.97699 0.375 1.4062 0.25049 0.42913 0.59031 0.76904 1.0195 1.0195 0.42922 0.2505 0.89801 0.37696 1.4062 0.37696s0.97707-0.12646 1.4062-0.37696c0.42917-0.25045 0.76904-0.59035 1.0195-1.0195 0.25045-0.42922 0.375-0.89805 0.375-1.4062 0-0.50824-0.1246-0.97707-0.375-1.4062-0.25049-0.42917-0.59036-0.76904-1.0195-1.0195-0.42927-0.25049-0.89797-0.375-1.4062-0.375zm-10.523 4e-3c-0.50824 0-0.97707 0.12451-1.4062 0.375-0.42922 0.25045-0.76904 0.59031-1.0195 1.0195-0.25054 0.42922-0.375 0.89805-0.375 1.4062 0 0.50824 0.12455 0.97698 0.375 1.4062 0.25049 0.42913 0.59031 0.76903 1.0195 1.0195 0.42922 0.25049 0.89801 0.375 1.4062 0.375s0.97708-0.12451 1.4062-0.375c0.42918-0.25045 0.76904-0.59036 1.0195-1.0195 0.25045-0.42922 0.375-0.89806 0.375-1.4062 0-0.50824-0.12459-0.97708-0.375-1.4062-0.25049-0.42918-0.59035-0.76904-1.0195-1.0195-0.42926-0.2505-0.89796-0.375-1.4062-0.375zm5.2617 5.1953c-0.50824 0-0.97708 0.1245-1.4062 0.375-0.42922 0.25045-0.76904 0.59031-1.0195 1.0195-0.25054 0.42922-0.375 0.89805-0.375 1.4062 0 0.50824 0.12455 0.97699 0.375 1.4062 0.25049 0.42913 0.59031 0.76904 1.0195 1.0195 0.42922 0.2505 0.89801 0.375 1.4062 0.375s0.97708-0.1245 1.4062-0.375c0.42917-0.25045 0.76904-0.59035 1.0195-1.0195 0.25045-0.42922 0.375-0.89805 0.375-1.4062 0-0.50824-0.1246-0.97707-0.375-1.4062-0.25049-0.42917-0.59036-0.76904-1.0195-1.0195-0.42926-0.2505-0.89797-0.375-1.4062-0.375zm5.1875 5.1582c-0.50824 0-0.97708 0.12646-1.4062 0.37696-0.42922 0.25044-0.76904 0.59031-1.0195 1.0195-0.25054 0.42922-0.37695 0.89805-0.37695 1.4062 0 0.50824 0.1265 0.97698 0.37695 1.4062 0.25049 0.42913 0.59031 0.76903 1.0195 1.0195 0.42922 0.25049 0.89801 0.375 1.4062 0.375s0.97708-0.12451 1.4062-0.375c0.42917-0.25045 0.76904-0.59036 1.0195-1.0195 0.25045-0.42922 0.375-0.89806 0.375-1.4062 0-0.50824-0.1246-0.97708-0.375-1.4062-0.25049-0.42918-0.59036-0.76904-1.0195-1.0195-0.42926-0.2505-0.89797-0.37696-1.4062-0.37696zm-10.389 0.0391c-0.50824 0-0.97708 0.12646-1.4062 0.37696-0.42922 0.25044-0.76904 0.59031-1.0195 1.0195-0.25054 0.42922-0.37696 0.89805-0.37696 1.4062 0 0.50824 0.12651 0.97698 0.37696 1.4062 0.25049 0.42913 0.59031 0.76903 1.0195 1.0195 0.42922 0.25049 0.89801 0.375 1.4062 0.375s0.97707-0.12451 1.4062-0.375c0.42917-0.25045 0.76904-0.59036 1.0195-1.0195 0.25045-0.42922 0.375-0.89806 0.375-1.4062 0-0.50824-0.1246-0.97708-0.375-1.4062-0.25049-0.42918-0.59036-0.76904-1.0195-1.0195-0.42927-0.2505-0.89797-0.37696-1.4062-0.37696z" fill="currentColor"/>
</svg>

<svg xmlns="http://www.w3.org/2000/svg" viewBox="0 0 22 22">
  <defs id="defs3051">
    <style type="text/css" id="current-color-scheme">
      .ColorScheme-Text {
        color:#f2f2f2
      }
      </style>
  </defs>
 <path 
     style="fill:currentColor;fill-opacity:1;stroke:none"      
	 class="ColorScheme-Text"
        d="m 16.32422,2.99987 c -0.50824,0 -0.97708,0.12451 -1.40625,0.375 -0.42922,0.25045 -0.76904,0.59031 -1.01953,1.01953 -0.25054,0.42922 -0.375,0.89806 -0.375,1.40625 0,0.50824 0.12455,0.97699 0.375,1.40625 0.25049,0.42913 0.59031,0.76904 1.01953,1.01953 0.42922,0.2505 0.89801,0.37696 1.40625,0.37696 0.50824,0 0.97707,-0.12646 1.40625,-0.37696 C 18.15964,7.97598 18.49951,7.63608 18.75,7.2069 19.00045,6.77768 19.125,6.30885 19.125,5.80065 19.125,5.29241 19.0004,4.82358 18.75,4.3944 18.49951,3.96523 18.15964,3.62536 17.73047,3.37487 17.3012,3.12438 16.8325,2.99987 16.32422,2.99987 Z m -10.52344,0.004 c -0.50824,0 -0.97707,0.12451 -1.40625,0.375 C 3.96531,3.62932 3.62549,3.96918 3.375,4.3984 3.12446,4.82762 3,5.29645 3,5.80465 3,6.31289 3.12455,6.78163 3.375,7.2109 c 0.25049,0.42913 0.59031,0.76903 1.01953,1.01953 0.42922,0.25049 0.89801,0.375 1.40625,0.375 0.50824,0 0.97708,-0.12451 1.40625,-0.375 C 7.63621,7.97998 7.97607,7.64007 8.22656,7.2109 8.47701,6.78168 8.60156,6.31284 8.60156,5.80465 8.60156,5.29641 8.47697,4.82757 8.22656,4.3984 7.97607,3.96922 7.63621,3.62936 7.20703,3.37887 6.77777,3.12837 6.30907,3.00387 5.80078,3.00387 Z m 5.26172,5.19531 c -0.50824,0 -0.97708,0.1245 -1.40625,0.375 -0.42922,0.25045 -0.76904,0.59031 -1.01953,1.01953 -0.25054,0.42922 -0.375,0.89805 -0.375,1.40625 0,0.50824 0.12455,0.97699 0.375,1.40625 0.25049,0.42913 0.59031,0.76904 1.01953,1.01953 0.42922,0.2505 0.89801,0.375 1.40625,0.375 0.50824,0 0.97708,-0.1245 1.40625,-0.375 0.42917,-0.25045 0.76904,-0.59035 1.01953,-1.01953 0.25045,-0.42922 0.375,-0.89805 0.375,-1.40625 0,-0.50824 -0.1246,-0.97707 -0.375,-1.40625 -0.25049,-0.42917 -0.59036,-0.76904 -1.01953,-1.01953 -0.42926,-0.2505 -0.89797,-0.375 -1.40625,-0.375 z m 5.1875,5.1582 c -0.50824,0 -0.97708,0.12646 -1.40625,0.37696 -0.42922,0.25044 -0.76904,0.59031 -1.01953,1.01953 -0.25054,0.42922 -0.37695,0.89805 -0.37695,1.40625 0,0.50824 0.1265,0.97698 0.37695,1.40625 0.25049,0.42913 0.59031,0.76903 1.01953,1.01953 0.42922,0.25049 0.89801,0.375 1.40625,0.375 0.50824,0 0.97708,-0.12451 1.40625,-0.375 0.42917,-0.25045 0.76904,-0.59036 1.01953,-1.01953 0.25045,-0.42922 0.375,-0.89806 0.375,-1.40625 0,-0.50824 -0.1246,-0.97708 -0.375,-1.40625 -0.25049,-0.42918 -0.59036,-0.76904 -1.01953,-1.01953 -0.42926,-0.2505 -0.89797,-0.37696 -1.40625,-0.37696 z m -10.38867,0.0391 c -0.50824,0 -0.97708,0.12646 -1.40625,0.37696 -0.42922,0.25044 -0.76904,0.59031 -1.01953,1.01953 -0.25054,0.42922 -0.37696,0.89805 -0.37696,1.40625 0,0.50824 0.12651,0.97698 0.37696,1.40625 C 3.68604,18.0346 4.02586,18.3745 4.45508,18.625 4.8843,18.87549 5.35309,19 5.86133,19 c 0.50824,0 0.97707,-0.12451 1.40625,-0.375 0.42917,-0.25045 0.76904,-0.59036 1.01953,-1.01953 0.25045,-0.42922 0.375,-0.89806 0.375,-1.40625 0,-0.50824 -0.1246,-0.97708 -0.375,-1.40625 C 8.03662,14.36379 7.69675,14.02393 7.26758,13.77344 6.83831,13.52294 6.36961,13.39648 5.86133,13.39648 Z"
     />
</svg>
